icons/union-3.svg

<svg xmlns="http://www.w3.org/2000/svg" viewBox="0 0 24 24" fill="currentColor">
  <path d="M8.45001 3.8501c-2.84427 0-5.15002 2.30573-5.15002 5.14999 0 1.79831.92177 3.38141 2.31861 4.30251.47337-1.7983 1.68096-3.2987 3.28286-4.16138-.00098-.04693-.00147-.09397-.00147-.14113 0-1.78835.70593-3.41183 1.85431-4.60697-.6933-.34746-1.47596-.54302-2.30429-.54302Zm.68389 6.9045c-1.07248.7381-1.85138 1.872-2.12584 3.1909.45755.1332.94141.2046 1.44195.2046.82833 0 1.61099-.1955 2.30429-.543-.75839-.7893-1.32383-1.7654-1.6204-2.8525Zm-3.73332 4.1567c-2.13868-1.1056-3.60059-3.3377-3.60059-5.91121 0-3.6727 2.97733-6.64999 6.65002-6.64999 1.30532 0 2.52279.37608 3.54999 1.02581 1.0272-.64973 2.2447-1.02581 3.55-1.02581 3.6727 0 6.65 2.97729 6.65 6.64999 0 2.53361-1.4169 4.73631-3.5015 5.85891.001.0469.0015.0939.0015.1411 0 3.6727-2.9773 6.65-6.65 6.65-3.67271 0-6.65001-2.9773-6.65001-6.65 0-.0297.0002-.0593.00059-.0888Zm11.78012.5374c-.2273 2.6342-2.4376 4.7014-5.1307 4.7014-2.68464 0-4.88949-2.0542-5.12853-4.6765.49078.1154 1.00253.1765 1.52854.1765 1.30532 0 2.52279-.3761 3.54999-1.0258 1.0272.6497 2.2447 1.0258 3.55 1.0258.5626 0 1.1089-.0699 1.6307-.2014Zm1.2854-2.2032C19.8154 12.317 20.7 10.7618 20.7 9.00009c0-2.84426-2.3057-5.14999-5.15-5.14999-.8283 0-1.611.19556-2.3043.54302C14.3941 5.58826 15.1 7.21174 15.1 9.00009c0 .02966-.0002.05927-.0006.08884 1.634.84464 2.873 2.34687 3.3667 4.15657Zm-3.5847-2.5479c1.1083.7308 1.9175 1.8784 2.2046 3.2196-.4851.1513-1.0011.2329-1.536.2329-.8283 0-1.611-.1955-2.3043-.543.7716-.8031 1.3435-1.7996 1.6357-2.9095Zm-1.3895-.6429c-.2169 1.0424-.7489 1.9692-1.4919 2.6764-.7363-.7008-1.2653-1.6172-1.4859-2.6481.485-.15134 1.0009-.2329 1.5359-.2329.5005 0 .9844.07141 1.4419.2046Zm.0866-1.52809c-.4907-.11544-1.0025-.17651-1.5285-.17651-.5626 0-1.109.06987-1.6307.20141.1111-1.28822.6965-2.44083 1.5807-3.28239.8785.83614 1.462 1.97933 1.5785 3.25749Z"/>
</svg>

<svg width="24" height="24" viewBox="0 0 24 24" fill="none" xmlns="http://www.w3.org/2000/svg">
<path fill-rule="evenodd" clip-rule="evenodd" d="M8.45001 3.8501C5.60574 3.8501 3.29999 6.15583 3.29999 9.00009C3.29999 10.7984 4.22176 12.3815 5.6186 13.3026C6.09197 11.5043 7.29956 10.0039 8.90146 9.14122C8.90048 9.09429 8.89999 9.04725 8.89999 9.00009C8.89999 7.21174 9.60592 5.58826 10.7543 4.39312C10.061 4.04566 9.27834 3.8501 8.45001 3.8501ZM9.1339 10.7546C8.06142 11.4927 7.28252 12.6266 7.00806 13.9455C7.46561 14.0787 7.94947 14.1501 8.45001 14.1501C9.27834 14.1501 10.061 13.9546 10.7543 13.6071C9.99591 12.8178 9.43047 11.8417 9.1339 10.7546ZM5.40058 14.9113C3.2619 13.8057 1.79999 11.5736 1.79999 9.00009C1.79999 5.32739 4.77732 2.3501 8.45001 2.3501C9.75533 2.3501 10.9728 2.72618 12 3.37591C13.0272 2.72618 14.2447 2.3501 15.55 2.3501C19.2227 2.3501 22.2 5.32739 22.2 9.00009C22.2 11.5337 20.7831 13.7364 18.6985 14.859C18.6995 14.9059 18.7 14.9529 18.7 15.0001C18.7 18.6728 15.7227 21.6501 12.05 21.6501C8.37729 21.6501 5.39999 18.6728 5.39999 15.0001C5.39999 14.9704 5.40019 14.9408 5.40058 14.9113ZM17.1807 15.4487C16.9534 18.0829 14.7431 20.1501 12.05 20.1501C9.36536 20.1501 7.16051 18.0959 6.92147 15.4736C7.41225 15.589 7.924 15.6501 8.45001 15.6501C9.75533 15.6501 10.9728 15.274 12 14.6243C13.0272 15.274 14.2447 15.6501 15.55 15.6501C16.1126 15.6501 16.6589 15.5802 17.1807 15.4487ZM18.4661 13.2455C19.8154 12.317 20.7 10.7618 20.7 9.00009C20.7 6.15583 18.3943 3.8501 15.55 3.8501C14.7217 3.8501 13.939 4.04566 13.2457 4.39312C14.3941 5.58826 15.1 7.21174 15.1 9.00009C15.1 9.02975 15.0998 9.05936 15.0994 9.08893C16.7334 9.93357 17.9724 11.4358 18.4661 13.2455ZM14.8814 10.6976C15.9897 11.4284 16.7989 12.576 17.086 13.9172C16.6009 14.0685 16.0849 14.1501 15.55 14.1501C14.7217 14.1501 13.939 13.9546 13.2457 13.6071C14.0173 12.804 14.5892 11.8075 14.8814 10.6976ZM13.4919 10.0547C13.275 11.0971 12.743 12.0239 12 12.7311C11.2637 12.0303 10.7347 11.1139 10.5141 10.083C10.9991 9.93166 11.515 9.8501 12.05 9.8501C12.5505 9.8501 13.0344 9.92151 13.4919 10.0547ZM13.5785 8.52661C13.0878 8.41117 12.576 8.3501 12.05 8.3501C11.4874 8.3501 10.941 8.41997 10.4193 8.55151C10.5304 7.26329 11.1158 6.11068 12 5.26912C12.8785 6.10526 13.462 7.24845 13.5785 8.52661Z" fill="black"/>
</svg>
